X:173
T:Duke of York's March. (p)1665.PLFD1.173
M:4/4
L:1/4
Q:1/2=100
S:Playford, Dancing Master,2nd Supp. to 3rd Ed.,1665
O:England;London
H:166
Z:Chris Partington
K:D
f/e/|ddff/g/|affb/a/|^gaa>g|a3:|
|:e/d/|cAAa/g/|fddg|f/g/af/g/a|e3e/d/|
^cAAa/g/fddg|f/g/ae>d|d3:|
